svg/Mapbox-maki/dog-park-12.svg

<?xml version="1.0" encoding="UTF-8" standalone="no"?>
<svg xmlns="http://www.w3.org/2000/svg" width="12" height="12">
  <path opacity="0.3" fill="#FFF" d="M 7.90625,1.5 C 7.7322014,1.536791 7.5830083,1.6735514 7.53125,1.84375 l -0.5,1.5 L 6.5625,4.78125 6.28125,4.59375 C 6.1997526,4.5352346 6.1003072,4.5020861 6,4.5 l -1.5,0 0,-0.3125 0.84375,-0.84375 C 5.606545,3.0665981 5.381656,2.5145978 5,2.5 l -1,0 C 3.8710353,2.50509 3.7448859,2.562434 3.65625,2.65625 l -1,1 C 2.5624336,3.7448859 2.5050929,3.8710353 2.5,4 l 0,2 0,0.9375 L 2.5,7 1.53125,9.84375 C 1.4335466,10.140798 1.6873207,10.496082 2,10.5 l 1,0 C 3.1822677,10.4955 3.3577782,10.382719 3.4375,10.21875 L 3.5,10.09375 C 3.5437333,10.322951 3.7667,10.504112 4,10.5 l 1,0 C 5.2333,10.5041 5.4562667,10.322951 5.5,10.09375 5.543733,10.322951 5.7667,10.504112 6,10.5 l 1,0 C 7.2067491,10.4974 7.4041378,10.352661 7.46875,10.15625 L 7.5,10.09375 C 7.5437333,10.322951 7.7667,10.504112 8,10.5 l 1,0 c 0.2617922,-2.6e-5 0.4999738,-0.238208 0.5,-0.5 l 0,-2 0,-1 C 9.497695,6.8401602 9.4134254,6.6836596 9.28125,6.59375 L 9.125,6.5 10,6.5 c 0.128965,-0.00509 0.255114,-0.062434 0.34375,-0.15625 l 1,-1 C 11.437566,5.2551141 11.494907,5.1289647 11.5,5 l 0,-1 C 11.499974,3.7382078 11.261792,3.5000262 11,3.5 L 10.1875,3.5 9.5,2.8125 9.5,2 C 9.4999738,1.7382078 9.2617922,1.5000262 9,1.5 l -1,0 C 7.968842,1.49707 7.937408,1.49707 7.90625,1.5 z"/>
  <path fill="#444444" d="M 4,3 3,4 3,6 3,7 2,10 3,10 3.725,8.55 4,8 4,10 5,10 5,8 6.5,8 6,10 7,10 7.5,8.5 8,8.5 8,10 9,10 9,8 9,7 6,5 4,5 4,4 5,3 z" />
  <path fill="#444444" d="M 9,6 10,6 11,5 11,4 10,4 9,3 9,3 9,2 8,2 7.5,3.5 7,5 z"/>
</svg>

<svg xmlns="http://www.w3.org/2000/svg" viewBox="0 0 12 12"><path opacity=".3" fill="#fff" d="m7.906 1.5c-.174.037-.323.174-.375.344l-.5 1.5-.469 1.438-.281-.188c-.081-.059-.181-.092-.281-.094h-1.5v-.313l.844-.844c.263-.277.038-.829-.344-.844h-1c-.129.005-.255.062-.344.156l-1 1c-.094.089-.151.215-.156.344v2 .938.063l-.969 2.844c-.098.297.156.652.469.656h1c.182-.005.358-.117.438-.281l.063-.125c.044.229.267.41.5.406h1c.233.004.456-.177.5-.406.044.229.267.41.5.406h1c.207-.003.404-.147.469-.344l.031-.063c.044.229.267.41.5.406h1c.262 0 .5-.238.5-.5v-2-1c-.002-.16-.087-.316-.219-.406l-.156-.094h.875c.129-.005.255-.062.344-.156l1-1c.094-.089.151-.215.156-.344v-1c0-.262-.238-.5-.5-.5h-.813l-.688-.688v-.813c0-.262-.238-.5-.5-.5h-1c-.031-.003-.063-.003-.094 0"/><g fill="#444"><path d="m4 3l-1 1v2 1l-1 3h1l.725-1.45.275-.55v2h1v-2h1.5l-.5 2h1l.5-1.5h.5v1.5h1v-2-1l-3-2h-2v-1l1-1z"/><path d="m9 6h1l1-1v-1h-1l-1-1v-1h-1l-.5 1.5-.5 1.5z"/></g></svg>
